src/images/app-icon.svg

<svg width="29" height="40" viewBox="0 0 29 40" fill="none" xmlns="http://www.w3.org/2000/svg">
<path fill-rule="evenodd" clip-rule="evenodd" d="M16.1867 0C14.1518 0 12.4972 1.63287 12.4972 3.64026C12.4978 5.66035 14.1525 7.28052 16.1867 7.28052C18.2342 7.28052 19.8936 5.66035 19.8936 3.64026C19.8936 1.63255 18.2342 0 16.1867 0ZM7.09934 7.16615C5.25958 7.14011 2.6911 8.82164 1.89675 11.7464L1.43327 13.4562L0.183304 18.0566C-0.394551 20.1015 0.380005 20.4478 2.70368 21.0623C5.02769 21.6767 5.87288 21.7586 6.40838 19.7025L8.89328 10.5485C9.51984 8.241 8.53004 7.18695 7.09904 7.16647L7.09934 7.16615ZM13.8388 7.91671C12.146 7.98554 10.678 9.14347 10.2557 10.7894L7.48425 20.9958C7.1207 22.2331 7.41544 23.5677 8.26761 24.5436C8.20351 27.7329 7.79785 29.283 7.05223 30.505C6.14727 31.9876 4.30123 33.4419 1.31953 36.5002C-0.609199 38.4624 2.39036 41.3087 4.30244 39.3304C7.11159 36.449 9.13363 35.0081 10.5966 32.611C11.6875 30.8234 12.2164 28.732 12.3704 25.6823C13.6481 25.2799 14.6224 24.2524 14.9448 22.9681L17.14 14.8887C18.2526 16.076 19.1319 16.8161 20.2759 17.2449C21.645 17.7576 22.9804 17.7093 25.0681 17.6668L22.7837 38.9931C22.6678 40.0763 24.3146 40.2475 24.4303 39.1642L26.7342 17.6443H26.8388C28.6469 17.6502 28.8307 15.0398 27.0393 14.7992L27.1612 13.6635C27.2209 13.174 26.8309 12.7443 26.3314 12.7493C25.9069 12.7545 25.5543 13.0742 25.5156 13.4914L25.3767 14.7886C23.2708 14.8007 21.9423 14.8125 21.3057 14.5738C18.0513 13.3433 18.1626 9.08325 15.146 8.08498C14.839 7.99105 14.5157 7.9337 14.1817 7.91819C14.067 7.91292 13.9529 7.91292 13.8401 7.91819L13.8388 7.91671ZM15.7665 23.9501C15.1937 25.2941 14.0506 26.2874 12.6953 26.7177C13.8966 28.1283 14.4835 28.9951 14.7814 29.8191C15.2638 31.1529 15.228 33.1801 15.5089 38.0248C15.6443 40.7663 19.8222 40.5306 19.6402 37.7919C19.3669 33.0752 19.5431 30.8375 18.679 28.4474C18.1244 26.9138 17.228 25.6396 15.7662 23.9503L15.7665 23.9501Z" fill="white"/>
</svg>

<svg width="29" height="40" fill="none" xmlns="http://www.w3.org/2000/svg"><path fill-rule="evenodd" clip-rule="evenodd" d="M16.187 0c-2.035 0-3.69 1.633-3.69 3.64 0 2.02 1.655 3.64 3.69 3.64 2.047 0 3.707-1.62 3.707-3.64 0-2.007-1.66-3.64-3.707-3.64ZM7.099 7.166c-1.84-.026-4.408 1.656-5.202 4.58l-.464 1.71-1.25 4.6c-.578 2.046.197 2.392 2.52 3.006 2.325.615 3.17.697 3.705-1.36l2.485-9.154C9.52 8.242 8.53 7.188 7.1 7.167Zm6.74.75c-1.693.07-3.161 1.227-3.583 2.873L7.484 20.996a3.772 3.772 0 0 0 .784 3.548c-.064 3.189-.47 4.739-1.216 5.961-.905 1.483-2.75 2.937-5.732 5.995-1.93 1.962 1.07 4.809 2.982 2.83 2.81-2.881 4.832-4.322 6.295-6.719 1.09-1.788 1.62-3.879 1.773-6.929a3.832 3.832 0 0 0 2.575-2.714l2.195-8.08c1.113 1.188 1.992 1.928 3.136 2.357 1.369.513 2.704.464 4.792.422l-2.284 21.326c-.116 1.083 1.53 1.255 1.646.171l2.304-21.52h.105c1.808.006 1.992-2.604.2-2.845l.122-1.135a.82.82 0 0 0-.83-.915.824.824 0 0 0-.815.742l-.14 1.298c-2.105.012-3.434.024-4.07-.215-3.255-1.23-3.143-5.49-6.16-6.489a3.914 3.914 0 0 0-1.306-.167l-.001-.001Zm1.928 16.034a4.963 4.963 0 0 1-3.072 2.768c1.202 1.41 1.788 2.277 2.086 3.101.483 1.334.447 3.361.728 8.206.135 2.741 4.313 2.506 4.131-.233-.273-4.717-.097-6.955-.961-9.345-.555-1.533-1.451-2.807-2.913-4.497Z" fill="#fff"/></svg>
